X:1
T:Dochas
S:Gary Chapin
M:4/4
L:1/8
Q:1/4=60
R:air
K:G
G2G2F2D2 | G2 GF G4 | c2B2c2d2 | e2d2d4 ||
|: dggf f2 ed | dedc B2 AG | ABcA d2 cA |1 G2A2B4 :|2 G2 GF G4 |]
